cssgg/minimize-alt.svg

<svg
  width="24"
  height="24"
  viewBox="0 0 24 24"
  fill="none"
  xmlns="http://www.w3.org/2000/svg"
>
  <path
    d="M20.0735 2L21.4877 3.41421L15.6378 9.26416H18.1824V11.2642H12.1824V5.26416H14.1824V7.89111L20.0735 2Z"
    fill="currentColor"
  />
  <path
    d="M11.1824 12.2642V18.2642H9.1824V15.8422L3.41421 21.6104L2 20.1962L7.93203 14.2642H5.1824V12.2642H11.1824Z"
    fill="currentColor"
  />
</svg>

<svg viewBox="0 0 24 24" xmlns="http://www.w3.org/2000/svg"><g><path d="M20.07 2l1.41 1.41 -5.85 5.84h2.54v2h-6V5.24h2v2.62l5.89-5.9Z"/><path d="M11.18 12.26v6h-2v-2.43l-5.77 5.76 -1.42-1.42 5.93-5.94H5.17v-2h6Z"/></g></svg>
